lib/brands/icons/netflix.svg

<svg xmlns="http://www.w3.org/2000/svg" fill="none" aria-hidden="true" viewBox="0 0 48 48"><g id="netflix-Icon"><path id="vector" fill="url(#paint0_linear_94_20614)" d="M27.839 3.12402L27.8198 12.3648L27.8007 21.6056L26.9186 19.4604V19.4549L25.7744 40.0267C26.8994 42.755 27.5002 44.2126 27.5066 44.2181C27.513 44.2236 28.1522 44.2566 28.9256 44.2896C31.2651 44.3886 34.167 44.6031 36.3722 44.8397C36.8836 44.8947 37.3182 44.9222 37.3502 44.9002C37.3822 44.8782 37.3885 35.4723 37.3822 23.9928L37.363 3.12402H27.839V3.12402Z"/><path id="vector_2" fill="url(#paint1_linear_94_20614)" d="M10.6104 3.09632V23.9872C10.6104 35.4777 10.6231 44.8891 10.6423 44.9056C10.6615 44.9221 11.486 44.8506 12.4832 44.7571C13.4803 44.6635 14.8546 44.5425 15.5385 44.493C16.5868 44.416 19.7316 44.2455 20.0896 44.24C20.1983 44.24 20.2047 43.7725 20.2174 35.3897L20.2366 26.5394L20.9973 28.3876C21.1123 28.6736 21.1507 28.7616 21.2657 29.0421L22.4099 8.4758C22.167 7.88725 22.2948 8.19528 22.02 7.52422C21.0867 5.25251 20.2941 3.33284 20.2622 3.24483L20.1983 3.09082H10.6104V3.09632Z"/><path id="vector_3" fill="#E30A17" d="M10.6104 3.09632L20.2303 26.5558V26.5448L20.9909 28.3929C25.216 38.6843 27.4852 44.2068 27.4979 44.2178C27.5043 44.2233 28.1435 44.2563 28.917 44.2893C31.2564 44.3883 34.1584 44.6028 36.3636 44.8393C36.8686 44.8943 37.3096 44.9218 37.3352 44.8998L27.7984 21.5999V21.6054L26.9163 19.4602C26.0534 17.3645 25.4781 15.9619 22.0072 7.52419C21.074 5.2525 20.2814 3.33284 20.2494 3.24483L20.1855 3.09082H15.3979L10.6104 3.09632Z"/></g><defs><linearGradient id="paint0_linear_94_20614" x1="41.6778" x2="26.4343" y1="34.3657" y2="41.06" gradientUnits="userSpaceOnUse"><stop stop-color="#B20610"/><stop offset="0.255959" stop-color="#B20610"/><stop offset="1" stop-color="#590004"/></linearGradient><linearGradient id="paint1_linear_94_20614" x1="5.98783" x2="22.4732" y1="12.2567" y2="5.10058" gradientUnits="userSpaceOnUse"><stop stop-color="#B20610"/><stop offset="0.255959" stop-color="#B20610"/><stop offset="1" stop-color="#590004"/></linearGradient></defs></svg>

<svg xmlns="http://www.w3.org/2000/svg" fill="none" aria-hidden="true" viewBox="0 0 48 48"><path fill="url(#a)" d="m27.839 3.124-.02 9.24-.018 9.242-.882-2.146v-.005l-1.145 20.572c1.125 2.728 1.726 4.186 1.733 4.191.006.006.645.039 1.419.072 2.34.099 5.241.313 7.446.55.512.055.946.082.978.06.032-.022.038-9.428.032-20.907l-.019-20.869h-9.524Z"/><path fill="url(#b)" d="M10.61 3.096v20.891c0 11.49.013 20.902.032 20.919.02.016.844-.055 1.841-.149a184.5 184.5 0 0 1 3.056-.264c1.048-.077 4.193-.248 4.55-.253.11 0 .116-.468.128-8.85l.02-8.85.76 1.848c.115.286.154.374.269.654L22.41 8.476c-.243-.589-.115-.28-.39-.952-.933-2.271-1.726-4.191-1.758-4.28l-.064-.153H10.61v.005Z"/><path fill="#E30A17" d="m10.61 3.096 9.62 23.46v-.011l.76 1.848c4.226 10.291 6.495 15.814 6.508 15.825.006.005.645.038 1.419.071 2.34.1 5.241.314 7.447.55.505.055.946.083.971.06l-9.537-23.3v.006l-.882-2.145-4.909-11.936c-.933-2.271-1.726-4.191-1.758-4.28l-.063-.153h-4.788l-4.788.005Z"/><defs><linearGradient id="a" x1="41.678" x2="26.434" y1="34.366" y2="41.06" gradientUnits="userSpaceOnUse"><stop stop-color="#B20610"/><stop offset=".256" stop-color="#B20610"/><stop offset="1" stop-color="#590004"/></linearGradient><linearGradient id="b" x1="5.988" x2="22.473" y1="12.257" y2="5.101" gradientUnits="userSpaceOnUse"><stop stop-color="#B20610"/><stop offset=".256" stop-color="#B20610"/><stop offset="1" stop-color="#590004"/></linearGradient></defs></svg>
